src/sponsor_logos/arsenal_do_alfeite.svg

<svg xmlns="http://www.w3.org/2000/svg" xml:space="preserve" style="fill-rule:evenodd;clip-rule:evenodd;stroke-linejoin:round;stroke-miterlimit:2" viewBox="0 0 1119 503"><path d="m0 6.817-.447.982h-5.088v-8.822H-.27l-.317.946h-3.677v2.928h3.321l-.299.945h-3.022v3.021zm-12.02-6.86h-2.511v-.98h6.763l-.389.98h-2.592v7.842h-1.271zm-6.194-.98h1.27v8.821h-1.27zm-7.142 7.84h4.26l-.451.982h-5.08v-8.822h5.259l-.315.946h-3.673v2.928h3.317l-.298.945h-3.019zm-4.615-2.62h-3.182v3.602h-1.273v-8.822h5.368l-.314.946h-3.781v3.346h3.498zm-10.523 2.62h3.816l-.374.982h-4.715v-8.822h1.273zm-9.411-1.982 1.653-3.827 1.553 3.827zm.77-5.858.363.856-.021.048-3.559 7.918h1.192l.908-2.147h3.883l.892 2.147h1.362l-3.678-8.822zm-9.697 3.195c-1.364 0-2.146 1.061-2.146 2.546s.773 2.548 2.146 2.548c1.363 0 2.144-1.063 2.144-2.548s-.781-2.546-2.144-2.546m0 5.886c-1.845 0-3.171-1.365-3.171-3.34 0-1.954 1.326-3.337 3.171-3.337 1.846 0 3.168 1.383 3.168 3.337 0 1.956-1.322 3.34-3.168 3.34m-7.631-5.947h-.732v5.063c.199.052.613.142.97.142 1.466 0 2.299-1.255 2.299-2.567 0-1.556-.911-2.638-2.537-2.638m.238 5.947a7.5 7.5 0 0 1-1.922-.261V1.59a9.5 9.5 0 0 1 1.934-.202c2.065 0 3.308 1.293 3.308 3.349 0 1.966-1.303 3.321-3.32 3.321m-6.18-1.241-.377.982h-4.715v-8.822h1.273v7.84zm-13.227-1.982 1.654-3.827 1.553 3.827zm.771-5.858.364.856-.022.048-3.558 7.918h1.191l.909-2.147h3.881l.893 2.147h1.359l-3.676-8.822zm-11.616 0 5.279 6.298v-6.298h1.111v8.822h-.577l-5.609-6.625v6.625h-1.128V-.15l-.705-.873zm-8.066 7.84h4.258l-.446.982h-5.084v-8.822h5.262l-.316.946h-3.674v2.928h3.319l-.3.945h-3.019zm-4.302-1.328c0 1.467-1.31 2.49-3.182 2.49a7.8 7.8 0 0 1-2.433-.402l-.204-1.404c.788.512 1.546.845 2.545.845.935 0 1.947-.536 1.947-1.401 0-.698-.589-1.207-1.097-1.429l-1.329-.564c-1.215-.508-1.833-1.27-1.833-2.265 0-1.547 1.308-2.546 3.329-2.546.795 0 1.725.296 2.146.528V.62c-.686-.582-1.393-.864-2.146-.864-.999 0-2.073.453-2.073 1.44 0 .727.753 1.126 1.074 1.263l1.53.691c.741.335 1.726.943 1.726 2.339m-13.346-2.146h-.13v-3.66h1.023c1.387 0 2.675.206 2.675 1.695 0 1.202-1.34 1.88-1.492 1.95zm2.884.388c.91-.339 1.973-1.194 1.973-2.483 0-1.836-1.823-2.489-3.529-2.489-1.04 0-1.793.138-2.461.258l-.266.049v8.733h1.269V4.234h1.721l2.786 3.565h1.576l-3.235-4.003zm-12.421 1.104 1.655-3.827 1.55 3.827zm.77-5.858.365.856-.023.048-3.556 7.918h1.189l.911-2.147h3.882l.891 2.147h1.36l-3.678-8.822z" style="fill:#a9a99f;fill-rule:nonzero" transform="translate(1118.1 435.838)scale(8.33333)"/><path d="M0 40.634h10.45L-10.11 0h-10.459z" style="fill:#00577d;fill-rule:nonzero" transform="translate(515.487)scale(8.33333)"/><path d="M0 3.695h10.451L8.583 0H-1.873z" style="fill:#00577d;fill-rule:nonzero" transform="translate(172.662 307.825)scale(8.33333)"/><path d="M10.117 40.634h10.451L.009 0h-10.46z" style="fill:#043057;fill-rule:nonzero" transform="matrix(-8.33333 0 0 8.33333 344.059 0)"/><path d="M-41.139-8.71H0L-4.406 0H-36.73z" style="fill:#a9a99f;fill-rule:nonzero" transform="matrix(-8.33333 0 0 8.33333 387.628 253.331)"/><path d="M-8.58 3.695H1.871L.004 0h-10.455z" style="fill:#043057;fill-rule:nonzero" transform="matrix(-8.33333 0 0 8.33333 873.947 307.825)"/><path d="M0 40.634h10.45L-10.108 0h-10.46z" style="fill:#00577d;fill-rule:nonzero" transform="translate(858.316)scale(8.33333)"/><path d="M10.121 40.634h10.448L.011 0h-10.459z" style="fill:#043057;fill-rule:nonzero" transform="matrix(-8.33333 0 0 8.33333 686.918 0)"/></svg>

<?xml version="1.0" encoding="UTF-8" standalone="no"?>
<!DOCTYPE svg PUBLIC "-//W3C//DTD SVG 1.1//EN" "http://www.w3.org/Graphics/SVG/1.1/DTD/svg11.dtd">
<svg width="100%" height="100%" viewBox="0 0 1119 503" version="1.1" xmlns="http://www.w3.org/2000/svg" xmlns:xlink="http://www.w3.org/1999/xlink" xml:space="preserve" xmlns:serif="http://www.serif.com/" style="fill-rule:evenodd;clip-rule:evenodd;stroke-linejoin:round;stroke-miterlimit:2;">
    <g transform="matrix(8.33333,0,0,8.33333,1118.1,435.838)">
        <path d="M0,6.817L-0.447,7.799L-5.535,7.799L-5.535,-1.023L-0.27,-1.023L-0.587,-0.077L-4.264,-0.077L-4.264,2.851L-0.943,2.851L-1.242,3.796L-4.264,3.796L-4.264,6.817L0,6.817ZM-12.02,-0.043L-14.531,-0.043L-14.531,-1.023L-7.768,-1.023L-8.157,-0.043L-10.749,-0.043L-10.749,7.799L-12.02,7.799L-12.02,-0.043ZM-18.214,-1.023L-16.944,-1.023L-16.944,7.798L-18.214,7.798L-18.214,-1.023ZM-25.356,6.817L-21.096,6.817L-21.547,7.799L-26.627,7.799L-26.627,-1.023L-21.368,-1.023L-21.683,-0.077L-25.356,-0.077L-25.356,2.851L-22.039,2.851L-22.337,3.796L-25.356,3.796L-25.356,6.817ZM-29.971,4.197L-33.153,4.197L-33.153,7.799L-34.426,7.799L-34.426,-1.023L-29.058,-1.023L-29.372,-0.077L-33.153,-0.077L-33.153,3.269L-29.655,3.269L-29.971,4.197ZM-40.494,6.817L-36.678,6.817L-37.052,7.799L-41.767,7.799L-41.767,-1.023L-40.494,-1.023L-40.494,6.817ZM-49.905,4.835L-48.252,1.008L-46.699,4.835L-49.905,4.835ZM-49.135,-1.023L-48.772,-0.167L-48.793,-0.119L-52.352,7.799L-51.16,7.799L-50.252,5.652L-46.369,5.652L-45.477,7.799L-44.115,7.799L-47.793,-1.023L-49.135,-1.023ZM-58.832,2.172C-60.196,2.172 -60.978,3.233 -60.978,4.718C-60.978,6.203 -60.205,7.266 -58.832,7.266C-57.469,7.266 -56.688,6.203 -56.688,4.718C-56.688,3.233 -57.469,2.172 -58.832,2.172M-58.832,8.058C-60.677,8.058 -62.003,6.693 -62.003,4.718C-62.003,2.764 -60.677,1.381 -58.832,1.381C-56.986,1.381 -55.664,2.764 -55.664,4.718C-55.664,6.674 -56.986,8.058 -58.832,8.058M-66.463,2.111L-67.195,2.111L-67.195,7.174C-66.996,7.226 -66.582,7.316 -66.225,7.316C-64.759,7.316 -63.926,6.061 -63.926,4.749C-63.926,3.193 -64.837,2.111 -66.463,2.111M-66.225,8.058C-66.996,8.058 -67.667,7.926 -68.147,7.797L-68.147,1.59C-67.625,1.489 -67.035,1.388 -66.213,1.388C-64.148,1.388 -62.905,2.681 -62.905,4.737C-62.905,6.703 -64.208,8.058 -66.225,8.058M-72.405,6.817L-72.782,7.799L-77.497,7.799L-77.497,-1.023L-76.224,-1.023L-76.224,6.817L-72.405,6.817ZM-85.632,4.835L-83.978,1.008L-82.425,4.835L-85.632,4.835ZM-84.861,-1.023L-84.497,-0.167L-84.519,-0.119L-88.077,7.799L-86.886,7.799L-85.977,5.652L-82.096,5.652L-81.203,7.799L-79.844,7.799L-83.52,-1.023L-84.861,-1.023ZM-96.477,-1.023L-91.198,5.275L-91.198,-1.023L-90.087,-1.023L-90.087,7.799L-90.664,7.799L-96.273,1.174L-96.273,7.799L-97.401,7.799L-97.401,-0.15L-98.106,-1.023L-96.477,-1.023ZM-104.543,6.817L-100.285,6.817L-100.731,7.799L-105.815,7.799L-105.815,-1.023L-100.553,-1.023L-100.869,-0.077L-104.543,-0.077L-104.543,2.851L-101.224,2.851L-101.524,3.796L-104.543,3.796L-104.543,6.817ZM-108.845,5.489C-108.845,6.956 -110.155,7.979 -112.027,7.979C-112.826,7.979 -113.621,7.848 -114.46,7.577L-114.664,6.173C-113.876,6.685 -113.118,7.018 -112.119,7.018C-111.184,7.018 -110.172,6.482 -110.172,5.617C-110.172,4.919 -110.761,4.41 -111.269,4.188L-112.598,3.624C-113.813,3.116 -114.431,2.354 -114.431,1.359C-114.431,-0.188 -113.123,-1.187 -111.102,-1.187C-110.307,-1.187 -109.377,-0.891 -108.956,-0.659L-108.956,0.62C-109.642,0.038 -110.349,-0.244 -111.102,-0.244C-112.101,-0.244 -113.175,0.209 -113.175,1.196C-113.175,1.923 -112.422,2.322 -112.101,2.459L-110.571,3.15C-109.83,3.485 -108.845,4.093 -108.845,5.489M-122.191,3.343L-122.321,3.343L-122.321,-0.317L-121.298,-0.317C-119.911,-0.317 -118.623,-0.111 -118.623,1.378C-118.623,2.58 -119.963,3.258 -120.115,3.328L-122.191,3.343ZM-119.307,3.731C-118.397,3.392 -117.334,2.537 -117.334,1.248C-117.334,-0.588 -119.157,-1.241 -120.863,-1.241C-121.903,-1.241 -122.656,-1.103 -123.324,-0.983L-123.59,-0.934L-123.59,7.799L-122.321,7.799L-122.321,4.234L-120.6,4.234L-117.814,7.799L-116.238,7.799L-119.473,3.796L-119.307,3.731ZM-131.728,4.835L-130.073,1.008L-128.523,4.835L-131.728,4.835ZM-130.958,-1.023L-130.593,-0.167L-130.616,-0.119L-134.172,7.799L-132.983,7.799L-132.072,5.652L-128.19,5.652L-127.299,7.799L-125.939,7.799L-129.617,-1.023L-130.958,-1.023Z" style="fill:rgb(169,169,159);fill-rule:nonzero;"/>
    </g>
    <g transform="matrix(8.33333,0,0,8.33333,515.487,0)">
        <path d="M0,40.634L10.45,40.634L-10.11,0L-20.569,0L0,40.634Z" style="fill:rgb(0,87,125);fill-rule:nonzero;"/>
    </g>
    <g transform="matrix(8.33333,0,0,8.33333,172.662,307.825)">
        <path d="M0,3.695L10.451,3.695L8.583,0L-1.873,0L0,3.695Z" style="fill:rgb(0,87,125);fill-rule:nonzero;"/>
    </g>
    <g transform="matrix(-8.33333,0,0,8.33333,344.059,0)">
        <path d="M10.117,40.634L20.568,40.634L0.009,0L-10.451,0L10.117,40.634Z" style="fill:rgb(4,48,87);fill-rule:nonzero;"/>
    </g>
    <g transform="matrix(-8.33333,0,0,8.33333,387.628,253.331)">
        <path d="M-41.139,-8.71L0,-8.71L-4.406,0L-36.73,0L-41.139,-8.71Z" style="fill:rgb(169,169,159);fill-rule:nonzero;"/>
    </g>
    <g transform="matrix(-8.33333,0,0,8.33333,873.947,307.825)">
        <path d="M-8.58,3.695L1.871,3.695L0.004,0L-10.451,0L-8.58,3.695Z" style="fill:rgb(4,48,87);fill-rule:nonzero;"/>
    </g>
    <g transform="matrix(8.33333,0,0,8.33333,858.316,0)">
        <path d="M0,40.634L10.45,40.634L-10.108,0L-20.568,0L0,40.634Z" style="fill:rgb(0,87,125);fill-rule:nonzero;"/>
    </g>
    <g transform="matrix(-8.33333,0,0,8.33333,686.918,0)">
        <path d="M10.121,40.634L20.569,40.634L0.011,0L-10.448,0L10.121,40.634Z" style="fill:rgb(4,48,87);fill-rule:nonzero;"/>
    </g>
</svg>
